X: 31153
T: Paddy Fahey's
R: reel
M: 4/4
K: Eminor
|:E2BE GFGA|Beed e3f|gfeg f2dB|edBA GEDE|
EEDE GFGA|Beed e3f|g2ag fedB|edBA GEE2:|
|:e2fe befe|d2Ad FdAd|e2fe befe|dcde fedB|
B2^AB BcdB|edBA GEDF|E3F GFGA|1 Beed e2ef:|2 BeGE FEDF||

